App/Icons/control_next.svg

<?xml version="1.0" encoding="UTF-8" standalone="no"?>
<svg
   version="1.1"
   id="Layer_1"
   x="0px"
   y="0px"
   viewBox="0 0 64 64"
   xml:space="preserve"
   sodipodi:docname="control_next.svg"
   inkscape:version="1.1 (c4e8f9ed74, 2021-05-24)"
   width="64"
   height="64"
   xmlns:inkscape="http://www.inkscape.org/namespaces/inkscape"
   xmlns:sodipodi="http://sodipodi.sourceforge.net/DTD/sodipodi-0.dtd"
   xmlns="http://www.w3.org/2000/svg"
   xmlns:svg="http://www.w3.org/2000/svg"
   xmlns:rdf="http://www.w3.org/1999/02/22-rdf-syntax-ns#"
   xmlns:cc="http://creativecommons.org/ns#"
   xmlns:dc="http://purl.org/dc/elements/1.1/"><metadata
   id="metadata39"><rdf:RDF><cc:Work
       rdf:about=""><dc:format>image/svg+xml</dc:format><dc:type
         rdf:resource="http://purl.org/dc/dcmitype/StillImage" /></cc:Work></rdf:RDF></metadata><defs
   id="defs37" /><sodipodi:namedview
   pagecolor="#ffffff"
   bordercolor="#666666"
   borderopacity="1"
   objecttolerance="10"
   gridtolerance="10"
   guidetolerance="10"
   inkscape:pageopacity="0"
   inkscape:pageshadow="2"
   inkscape:window-width="1920"
   inkscape:window-height="1056"
   id="namedview35"
   showgrid="false"
   inkscape:pagecheckerboard="true"
   inkscape:zoom="1.8615385"
   inkscape:cx="227.76859"
   inkscape:cy="227.5"
   inkscape:window-x="0"
   inkscape:window-y="0"
   inkscape:window-maximized="1"
   inkscape:current-layer="Layer_1" />
<path
   d="M 32,4 C 16.536,4 4,16.536 4,32 4,47.464 16.536,60 32,60 47.464,60 60,47.464 60,32 60,16.536 47.464,4 32,4 Z M 47.9136,44.615385 H 41.144369 V 34.894646 L 26.109538,43.578462 V 37.789169 L 16.0864,43.578462 V 20.421538 l 10.023138,5.789293 v -5.789293 l 15.034708,8.683939 v -9.720862 h 6.769231 v 25.23077 z"
   id="path2"
   style="fill:#ffffff;stroke-width:0.123077" />
<g
   id="g4">
</g>
<g
   id="g6">
</g>
<g
   id="g8">
</g>
<g
   id="g10">
</g>
<g
   id="g12">
</g>
<g
   id="g14">
</g>
<g
   id="g16">
</g>
<g
   id="g18">
</g>
<g
   id="g20">
</g>
<g
   id="g22">
</g>
<g
   id="g24">
</g>
<g
   id="g26">
</g>
<g
   id="g28">
</g>
<g
   id="g30">
</g>
<g
   id="g32">
</g>
</svg>

<?xml version="1.0" encoding="UTF-8"?>
<svg id="Layer_1" width="64" height="64" version="1.1" viewBox="0 0 64 64" xml:space="preserve" xmlns="http://www.w3.org/2000/svg" xmlns:cc="http://creativecommons.org/ns#" xmlns:dc="http://purl.org/dc/elements/1.1/" xmlns:rdf="http://www.w3.org/1999/02/22-rdf-syntax-ns#"><metadata id="metadata39"><rdf:RDF><cc:Work rdf:about=""><dc:format>image/svg+xml</dc:format><dc:type rdf:resource="http://purl.org/dc/dcmitype/StillImage"/></cc:Work></rdf:RDF></metadata>
<path id="path2" d="m32 4c-15.464 0-28 12.536-28 28s12.536 28 28 28 28-12.536 28-28-12.536-28-28-28zm9.1445 15.385h6.7695v25.23h-6.7695v-9.7207l-15.035 8.6836v-5.7891l-10.023 5.7891v-23.156l10.023 5.7891v-5.7891l15.035 8.6836v-9.7207z" fill="#fff"/>















</svg>
